X: 31940
T: Pearl O'Shaughnessy's
R: barndance
M: 4/4
K: Gmajor
|:B>c|d2 d2 d>Be>d|B2 B2 B>AG>B|d2 c2 c>A (3FGA|(3efe d2 B2 B>c|
d2 d2 d>Be>d|B2 B2 B>A (3GAB|d2 c2 A>F (3DEF|G2 B2 G2:|
|:(3edc|B2 G2 G>Bd>B|(3cdc A2 A2 c>B|A2 F2 F2 D>F|G>FG>B d>G (3edc|
(3BcB G>F G>Bd>B|c2 A2 A>dc>B|A>GF>E D>E (3FED|G2 g2 G2:|

